assets/arrow-down.svg

<svg xmlns="http://www.w3.org/2000/svg" fill="none" viewBox="0 0 12 22">
  <path fill="#2A2238" d="M6.75 1c0-.414214-.33579-.75-.75-.75s-.75.335786-.75.75h1.5ZM5.46967 21.5303c.29289.2929.76777.2929 1.06066 0l4.77297-4.7729c.2929-.2929.2929-.7678 0-1.0607-.2929-.2929-.7678-.2929-1.0607 0L6 19.9393l-4.24264-4.2426c-.29289-.2929-.767768-.2929-1.060661 0-.292893.2929-.292893.7678 0 1.0607l4.772971 4.7729ZM5.25 1v20h1.5V1h-1.5Z"/>
</svg>

<svg width="12" height="22" viewBox="0 0 12 22" fill="none" xmlns="http://www.w3.org/2000/svg">
<path d="M6.75 1C6.75 0.585786 6.41421 0.25 6 0.25C5.58579 0.25 5.25 0.585786 5.25 1L6.75 1ZM5.46967 21.5303C5.76256 21.8232 6.23744 21.8232 6.53033 21.5303L11.3033 16.7574C11.5962 16.4645 11.5962 15.9896 11.3033 15.6967C11.0104 15.4038 10.5355 15.4038 10.2426 15.6967L6 19.9393L1.75736 15.6967C1.46447 15.4038 0.989592 15.4038 0.696699 15.6967C0.403806 15.9896 0.403806 16.4645 0.696699 16.7574L5.46967 21.5303ZM5.25 1L5.25 21H6.75L6.75 1L5.25 1Z" fill="#2A2238"/>
</svg>
